src/lib/packages/icons/src/assets/filled/hospital.svg

<svg xmlns="http://www.w3.org/2000/svg" width="24" height="24" fill="none"><path fill="currentColor" d="M22 20.25h-.5V11c0-1.218-.562-1.882-1.678-1.986a.304.304 0 0 0-.322.304V20.25H18V6c0-2-1-3-3-3H9C7 3 6 4 6 6v14.25H4.5V9.318c0-.173-.15-.32-.322-.304C3.062 9.118 2.5 9.782 2.5 11v9.25H2a.75.75 0 0 0 0 1.5h20a.75.75 0 0 0 0-1.5ZM9.75 7a.75.75 0 0 1 1.5 0v1.25h1.5V7a.75.75 0 0 1 1.5 0v4a.75.75 0 0 1-1.5 0V9.75h-1.5V11a.75.75 0 0 1-1.5 0V7ZM10 17a2 2 0 0 1 4 0v3.25h-4V17Z"/></svg>

<svg width="24" height="24" viewBox="0 0 24 24" fill="none" xmlns="http://www.w3.org/2000/svg">
<path d="M22 20.25H21.5V11C21.5 9.782 20.938 9.11792 19.822 9.01392C19.65 8.99792 19.5 9.14512 19.5 9.31812V20.25H18V6C18 4 17 3 15 3H9C7 3 6 4 6 6V20.25H4.5V9.31812C4.5 9.14512 4.34998 8.99792 4.17798 9.01392C3.06198 9.11792 2.5 9.782 2.5 11V20.25H2C1.586 20.25 1.25 20.586 1.25 21C1.25 21.414 1.586 21.75 2 21.75H22C22.414 21.75 22.75 21.414 22.75 21C22.75 20.586 22.414 20.25 22 20.25ZM9.75 7C9.75 6.586 10.086 6.25 10.5 6.25C10.914 6.25 11.25 6.586 11.25 7V8.25H12.75V7C12.75 6.586 13.086 6.25 13.5 6.25C13.914 6.25 14.25 6.586 14.25 7V11C14.25 11.414 13.914 11.75 13.5 11.75C13.086 11.75 12.75 11.414 12.75 11V9.75H11.25V11C11.25 11.414 10.914 11.75 10.5 11.75C10.086 11.75 9.75 11.414 9.75 11V7ZM10 17C10 15.896 10.896 15 12 15C13.104 15 14 15.896 14 17V20.25H10V17Z" fill="currentColor"/>
</svg>
